X:71
T:Missing the F in C
C:Greg Brown
D:JIIG:Ian Robb, James Stephens, Ian Clark and Greg Brown
Z:robin.beech@mcgill.ca
R:jig
M:6/8
L:1/8
K:C
cde dcA | GAc d2e | d2A BAG | d^cd d=cB | ABc Bcd | ced c2e |
d2A BAG | ced c3 :: gcc bca | gcc Bcd | B2G GAB | ced cde |
gcc ^fca | gcc Bcd | BGG GAB | ced c3 :|
